pages/main-page/img/hobby.svg

<svg width="204" height="180" viewBox="0 0 204 180" fill="none" xmlns="http://www.w3.org/2000/svg">
<path d="M117.933 24.5586C149.624 24.5586 151.744 53.4622 164.225 66.5524C171.678 74.3638 188.776 74.5498 198.344 93.1048C214.675 124.777 190.224 149.646 181.065 154.879C169.908 161.252 158.098 166.199 145.385 167.366C127.079 169.049 63.9161 163.376 72.549 109.785C75.9033 88.9699 93.9408 24.5586 117.933 24.5586Z" fill="#F1672A"/>
<path d="M72.5451 109.786C75.8993 88.9711 92.6115 34.441 110.182 26.625C108.593 28.4224 102.043 32.2214 99.0885 44.1859C97.3773 51.1168 104.009 56.3138 107.199 62.7046C108.797 65.8954 113.15 70.6204 104.009 73.8793C88.2496 79.4985 68.8777 115.396 92.8294 126.571C105.602 132.962 120.857 142.584 133.629 150.568C159.179 169.731 185.877 119.354 203.592 119.354C201.445 137.869 187.483 151.213 181.065 154.876C169.909 161.248 158.099 166.196 145.385 167.362C127.08 169.051 63.9121 163.377 72.5451 109.786Z" fill="#E44F26"/>
<path d="M127.933 86.9685C166.137 81.785 177.67 95.8601 177.956 104.23C178.342 115.69 160.096 121.75 147.959 120.906C139.798 120.338 137.619 115.945 131.837 110.167C119.872 98.2022 98.1446 112.386 98.1446 104.961C98.1446 98.9284 117.085 88.4391 127.933 86.9685Z" fill="#E44F26"/>
<path fill-rule="evenodd" clip-rule="evenodd" d="M22.1665 111.463C23.2891 103.487 29.5365 94.9018 35.1519 89.7326C41.2219 84.1431 45.5044 83.1858 48.3453 84.0903C51.1863 84.9948 61.5938 88.9558 61.5938 88.9558L45.7485 175.309C45.7485 175.309 37.2212 172.121 33.6711 170.915C27.4519 168.75 24.2772 159.698 25.6712 146.623C26.438 139.439 27.6003 133.567 27.364 130.029C26.7304 120.498 20.4572 123.49 22.1665 111.463Z" fill="url(#paint0_linear_36_32)"/>
<path fill-rule="evenodd" clip-rule="evenodd" d="M35.0441 116.211C36.1667 108.236 42.4134 99.6458 48.033 94.4758C60.2782 83.2051 65.2436 90.814 65.8083 94.3517C66.7263 100.08 63.6694 107.569 65.8657 112.666C68.6624 119.159 73.8649 117.973 76.749 126.245C79.0391 132.808 81.3628 156.224 59.8873 171.958C45.4584 182.526 36.3597 171.915 38.5523 151.366C39.317 144.17 40.4785 138.293 40.2562 134.761C39.6086 125.225 33.3383 128.234 35.0441 116.211Z" fill="#FFAC00"/>
<path fill-rule="evenodd" clip-rule="evenodd" d="M35.6908 116.323C36.8035 108.466 42.9675 99.973 48.5161 94.8672C60.6081 83.7354 65.5091 91.2474 66.0666 94.7431C66.9723 100.4 63.9547 107.792 66.1267 112.823C68.8879 119.236 74.024 118.066 76.8724 126.232C79.1312 132.714 81.4258 155.837 60.2228 171.373C45.9745 181.81 36.9893 171.33 39.1535 151.041C39.9104 143.95 41.0591 138.149 40.8258 134.653C40.2029 125.26 34.0093 128.212 35.6908 116.323Z" fill="url(#paint1_linear_36_32)"/>
<path fill-rule="evenodd" clip-rule="evenodd" d="M50.2934 156.46L50.0008 150.074L66.418 134.835L66.4441 138.358L50.2934 156.46Z" fill="black"/>
<path fill-rule="evenodd" clip-rule="evenodd" d="M29.4023 30.5639L35.9394 24.3014L44.1086 98.4752L42.145 97.5701L29.4023 30.5639Z" fill="black"/>
<path fill-rule="evenodd" clip-rule="evenodd" d="M27.8589 5.06252L35.728 24.3288L29.4022 30.5634L17.3922 13.6219C20.1011 9.61702 23.4824 7.44966 27.8589 5.06252ZM23.016 10.4742L29.1033 23.167C30.3213 22.9864 30.7821 22.8764 30.7443 21.6337L25.3018 8.69529C24.3897 8.42087 23.5064 9.16165 23.016 10.4742Z" fill="url(#paint2_linear_36_32)"/>
<path fill-rule="evenodd" clip-rule="evenodd" d="M21.7065 11.6465L25.7938 13.3079L33.3151 26.3188L30.9651 27.6766L21.7065 11.6465Z" fill="url(#paint3_linear_36_32)"/>
<path fill-rule="evenodd" clip-rule="evenodd" d="M27.8505 5.06397L30.3996 6.10548L20.7949 15.5488L17.3893 13.6051C20.0927 9.61848 23.474 7.45111 27.8505 5.06397Z" fill="url(#paint4_linear_36_32)"/>
<path fill-rule="evenodd" clip-rule="evenodd" d="M30.3996 6.10426L37.6757 25.8406L31.0322 31.3132L19.9342 14.6461C22.6376 10.6595 26.019 8.49213 30.3996 6.10426ZM27.12 12.1315L33.5073 24.8589C34.2615 25.0957 35.1861 24.5683 35.0517 23.7918L29.3932 10.3548C28.4812 10.0804 27.5971 10.817 27.1075 12.1337L27.12 12.1315ZM23.6846 15.51L30.9083 26.826C31.8392 26.9847 32.8544 26.2816 32.7331 25.5807L25.7934 13.3078C24.9171 13.265 23.933 14.5722 23.6846 15.51Z" fill="url(#paint5_linear_36_32)"/>
<path fill-rule="evenodd" clip-rule="evenodd" d="M17.3999 13.6152L19.9364 14.6589L31.0286 31.2924L29.4022 30.5624L17.3999 13.6152Z" fill="black"/>
<path fill-rule="evenodd" clip-rule="evenodd" d="M31.0284 31.2938L37.6742 25.8338L51.804 93.9356L44.4992 100.733L31.0284 31.2938Z" fill="url(#paint6_linear_36_32)"/>
<path fill-rule="evenodd" clip-rule="evenodd" d="M32.23 31.1404L36.6688 27.0653L52.6545 101.719L46.7536 107.712L32.23 31.1404Z" fill="black"/>
<path d="M31.8338 9.99371L34.2667 7.54095C34.3501 7.45658 34.3966 7.34252 34.3959 7.22387C34.3952 7.10523 34.3474 6.99171 34.2631 6.90829C34.1787 6.82487 34.0646 6.77838 33.946 6.77905C33.8273 6.77973 33.7138 6.82751 33.6304 6.91188L31.4912 9.0631L31.8338 9.99371Z" fill="black"/>
<path d="M28.8606 11.8497C28.387 12.2602 27.5677 13.0461 27.5677 13.0461L27.9811 13.8866L29.3361 12.5239C29.3782 12.4686 29.4009 12.4009 29.4006 12.3314C29.4003 12.2618 29.377 12.1944 29.3344 12.1394C29.2783 12.0151 29.087 11.6592 28.8606 11.8497Z" fill="black"/>
<path d="M22.2152 18.433L19.163 21.503L19.7178 22.211L22.7769 19.1311C22.5745 18.911 22.3868 18.6778 22.2152 18.433V18.433Z" fill="black"/>
<path d="M24.831 17.0632L26.3758 15.499C26.4344 15.443 26.4708 15.3677 26.4782 15.2869C26.4857 15.2062 26.4638 15.1255 26.4165 15.0597L26.2984 14.877C26.27 14.8351 26.2327 14.8001 26.1892 14.7743C26.1457 14.7485 26.097 14.7326 26.0467 14.7277C25.9963 14.7228 25.9455 14.7291 25.8978 14.746C25.8502 14.7629 25.8068 14.7901 25.7708 14.8256L24.3588 16.2328L24.831 17.0632Z" fill="black"/>
<path d="M33.6787 15.008L36.1506 12.5311C36.1922 12.4896 36.2252 12.4403 36.2478 12.3859C36.2704 12.3316 36.282 12.2734 36.2821 12.2146C36.2821 12.1558 36.2706 12.0975 36.2481 12.0432C36.2257 11.9888 36.1927 11.9394 36.1512 11.8978C36.1096 11.8561 36.0603 11.8231 36.006 11.8005C35.9517 11.778 35.8934 11.7663 35.8346 11.7663C35.7758 11.7662 35.7175 11.7777 35.6632 11.8002C35.6088 11.8227 35.5594 11.8556 35.5178 11.8972L33.3403 14.0766L33.6787 15.008Z" fill="black"/>
<path d="M31.0375 16.4075L29.8516 17.5983L30.2743 18.4416L31.4309 17.2818C31.5133 17.1963 31.569 17.0886 31.5911 16.9719C31.6131 16.8552 31.6005 16.7345 31.5549 16.6249L31.5079 16.5033C31.4906 16.4588 31.4624 16.4193 31.4259 16.3885C31.3894 16.3577 31.3457 16.3365 31.2989 16.327C31.252 16.3174 31.2036 16.3198 31.1579 16.3339C31.1122 16.348 31.0708 16.3733 31.0375 16.4075V16.4075Z" fill="black"/>
<path d="M27.404 21.3391L28.7066 19.9984C28.7741 19.925 28.8138 19.8303 28.8186 19.7307C28.8235 19.6311 28.7933 19.533 28.7333 19.4534L28.65 19.3468C28.6216 19.3108 28.586 19.2811 28.5454 19.2597C28.5048 19.2384 28.4602 19.2257 28.4145 19.2226C28.3688 19.2196 28.3229 19.2261 28.2798 19.2419C28.2367 19.2576 28.1975 19.2822 28.1645 19.3141L26.9062 20.5607C27.0864 20.8108 27.2526 21.0706 27.404 21.3391V21.3391Z" fill="black"/>
<path d="M25.2846 23.0057C25.1982 22.922 25.1451 22.8099 25.1349 22.6901C25.0991 22.6067 25.0697 22.5208 25.0471 22.4329L21.8662 25.6333L22.421 26.3413L25.5066 23.2396L25.2846 23.0057Z" fill="black"/>
<path d="M27.9645 26.8252C27.9143 26.7604 27.8628 26.6872 27.8161 26.6174L24.6812 29.7839L25.236 30.4919L28.3884 27.3267C28.2232 27.1813 28.0804 27.0123 27.9645 26.8252V26.8252Z" fill="black"/>
<path d="M31.3717 23.8337C31.363 23.7833 31.2671 23.6788 31.2671 23.6788C31.2375 23.6425 31.2005 23.6128 31.1587 23.5916C31.1169 23.5704 31.0711 23.5581 31.0243 23.5557C30.9775 23.5532 30.9306 23.5605 30.8868 23.5772C30.843 23.5939 30.8031 23.6195 30.7698 23.6525L29.6174 24.8116C29.6478 24.8626 29.6748 24.9184 29.701 24.9701C29.7471 25.0134 29.7864 25.0634 29.8175 25.1185C29.8959 25.2774 29.9846 25.4309 30.0829 25.5783L31.3056 24.3509C31.3724 24.2842 31.4151 24.1972 31.4271 24.1036C31.439 24.0099 31.4196 23.915 31.3717 23.8337Z" fill="black"/>
<path d="M35.5641 20.1079L38.1808 17.4936C38.2642 17.4093 38.3107 17.2952 38.31 17.1766C38.3094 17.0579 38.2616 16.9444 38.1772 16.861C38.0928 16.7776 37.9788 16.7311 37.8601 16.7317C37.7415 16.7324 37.628 16.7802 37.5445 16.8646L35.2244 19.1941C35.3476 19.5315 35.4438 19.7872 35.5641 20.1079Z" fill="black"/>
<path d="M33.3916 21.0184L32.1801 22.2353L32.5985 23.0793L33.7293 21.9455C33.7945 21.883 33.8381 21.8013 33.8537 21.7123C33.8694 21.6234 33.8564 21.5317 33.8166 21.4506C33.8166 21.4506 33.5753 20.831 33.3916 21.0184Z" fill="black"/>
<path d="M21.264 22.2792C21.4333 23.2571 20.814 23.775 19.8812 23.4306C19.3853 23.2184 18.9462 22.8926 18.5992 22.4797C18.2522 22.0668 18.007 21.5781 17.8833 21.0531C17.7133 20.071 18.3326 19.5531 19.2696 19.8967C19.7646 20.1111 20.2027 20.4381 20.549 20.8517C20.8953 21.2654 21.1401 21.7542 21.264 22.2792V22.2792Z" fill="black"/>
<path d="M24.0628 26.6124C24.2328 27.5945 23.6135 28.1123 22.6765 27.7688C22.1786 27.5537 21.7384 27.2245 21.3913 26.8076C21.0443 26.3908 20.8004 25.8981 20.6791 25.3695C20.5092 24.3874 21.1285 23.8695 22.0613 24.2139C22.5599 24.4283 23.0009 24.7572 23.3487 25.1739C23.6964 25.5907 23.9411 26.0835 24.0628 26.6124Z" fill="black"/>
<path d="M27.2389 30.7524C27.4089 31.7345 26.7854 32.2531 25.8526 31.9088C25.3534 31.694 24.9119 31.3645 24.564 30.947C24.216 30.5295 23.9715 30.0358 23.8503 29.506C23.6811 28.5281 24.3004 28.0103 25.2374 28.3539C25.7358 28.5686 26.1767 28.8976 26.5244 29.3143C26.8721 29.7309 27.1169 30.2236 27.2389 30.7524Z" fill="black"/>
<path d="M39.1766 19.176C39.7169 18.7256 39.521 17.6003 38.7392 16.6625C37.9574 15.7248 36.8856 15.3297 36.3454 15.7801C35.8051 16.2306 36.001 17.3559 36.7828 18.2936C37.5646 19.2314 38.6364 19.6264 39.1766 19.176Z" fill="black"/>
<path d="M37.5368 12.6723C37.7068 13.6544 37.0875 14.1723 36.1505 13.8287C35.6518 13.6131 35.2108 13.2833 34.863 12.8659C34.5152 12.4486 34.2703 11.9553 34.1482 11.426C33.9789 10.448 34.6024 9.92947 35.5352 10.2738C36.0342 10.4877 36.4756 10.8164 36.8234 11.2332C37.1712 11.65 37.4157 12.1431 37.5368 12.6723V12.6723Z" fill="black"/>
<path d="M35.216 8.23276C35.3859 9.21486 34.7624 9.73344 33.8297 9.38912C33.3307 9.17526 32.8893 8.84652 32.5414 8.42971C32.1936 8.0129 31.9492 7.5198 31.8281 6.9906C31.6581 6.00849 32.2774 5.49064 33.2144 5.83423C33.7128 6.04896 34.1537 6.37796 34.5014 6.79463C34.8491 7.21131 35.0939 7.70396 35.216 8.23276V8.23276Z" fill="black"/>
<path d="M59.8919 125.007C62.0782 119.059 61.0654 113.213 57.6298 111.951C54.1941 110.688 49.6366 114.486 47.4503 120.435C45.264 126.383 46.2768 132.229 49.7125 133.492C53.1481 134.754 57.7056 130.956 59.8919 125.007Z" fill="black"/>
<path d="M60.3041 142.595L60.0429 142.934L36.0932 27.0367L28.4734 12.1581L28.7616 11.8748L36.3666 26.7429L60.3041 142.595ZM58.7621 144.501L58.5044 144.835L35.0999 27.7662L27.8125 12.735L28.1028 12.4643L35.38 27.5362L58.7621 144.501ZM57.2429 147.037L56.9852 147.371L33.5078 29.157L25.3729 15.2235L25.6306 14.8893L33.7706 28.8522L57.2429 147.037ZM55.9298 148.592L55.6714 148.922L32.4903 29.947L24.5411 16.0375L24.8038 15.7068L32.7746 29.7162L55.9298 148.592Z" fill="white"/>
<defs>
<linearGradient id="paint0_linear_36_32" x1="51.1137" y1="85.4743" x2="42.5408" y2="114.191" gradientUnits="userSpaceOnUse">
<stop stop-color="#FFEB65"/>
<stop offset="0.18" stop-color="#FFE14D"/>
<stop offset="0.48" stop-color="#FFD124"/>
<stop offset="1" stop-color="#FFAC00"/>
</linearGradient>
<linearGradient id="paint1_linear_36_32" x1="54.6451" y1="32.9982" x2="58.0788" y2="181.513" gradientUnits="userSpaceOnUse">
<stop stop-color="#FFEB65"/>
<stop offset="0.18" stop-color="#FFE14D"/>
<stop offset="0.48" stop-color="#FFD124"/>
<stop offset="1" stop-color="#FFAC00"/>
</linearGradient>
<linearGradient id="paint2_linear_36_32" x1="26.2877" y1="22.2061" x2="38.2884" y2="17.0898" gradientUnits="userSpaceOnUse">
<stop stop-color="#FFEB65"/>
<stop offset="0.18" stop-color="#FFE14D"/>
<stop offset="0.48" stop-color="#FFD124"/>
<stop offset="1" stop-color="#FFAC00"/>
</linearGradient>
<linearGradient id="paint3_linear_36_32" x1="21.278" y1="21.7581" x2="29.5979" y2="18.3037" gradientUnits="userSpaceOnUse">
<stop stop-color="#FFEB65"/>
<stop offset="0.18" stop-color="#FFE14D"/>
<stop offset="0.48" stop-color="#FFD124"/>
<stop offset="1" stop-color="#FFAC00"/>
</linearGradient>
<linearGradient id="paint4_linear_36_32" x1="22.8138" y1="14.0777" x2="36.5933" y2="8.20306" gradientUnits="userSpaceOnUse">
<stop stop-color="#FFEB65"/>
<stop offset="0.18" stop-color="#FFE14D"/>
<stop offset="0.48" stop-color="#FFD124"/>
<stop offset="1" stop-color="#FFAC00"/>
</linearGradient>
<linearGradient id="paint5_linear_36_32" x1="24.698" y1="25.8605" x2="36.7953" y2="9.28981" gradientUnits="userSpaceOnUse">
<stop stop-color="#FFEB65"/>
<stop offset="0.18" stop-color="#FFE14D"/>
<stop offset="0.48" stop-color="#FFD124"/>
<stop offset="1" stop-color="#FFAC00"/>
</linearGradient>
<linearGradient id="paint6_linear_36_32" x1="40.7383" y1="33.3222" x2="44.1761" y2="181.836" gradientUnits="userSpaceOnUse">
<stop stop-color="#FFEB65"/>
<stop offset="0.18" stop-color="#FFE14D"/>
<stop offset="0.48" stop-color="#FFD124"/>
<stop offset="1" stop-color="#FFAC00"/>
</linearGradient>
</defs>
</svg>

<svg width="204" height="180" fill="none" xmlns="http://www.w3.org/2000/svg"><path d="M117.933 24.559c31.691 0 33.811 28.903 46.292 41.993 7.453 7.812 24.551 7.998 34.119 26.553 16.331 31.672-8.12 56.541-17.279 61.774-11.157 6.373-22.967 11.32-35.68 12.487-18.306 1.683-81.469-3.99-72.836-57.581 3.354-20.815 21.392-85.226 45.384-85.226Z" fill="#F1672A"/><path d="M72.545 109.786c3.354-20.815 20.067-75.345 37.637-83.161-1.589 1.797-8.139 5.596-11.094 17.56-1.71 6.932 4.921 12.129 8.111 18.52 1.598 3.19 5.951 7.915-3.19 11.174-15.76 5.62-35.131 41.517-11.18 52.692 12.773 6.391 28.028 16.013 40.8 23.997 25.55 19.163 52.248-31.214 69.963-31.214-2.147 18.515-16.109 31.859-22.527 35.522-11.156 6.372-22.966 11.32-35.68 12.486-18.305 1.689-81.473-3.985-72.84-57.576Z" fill="#E44F26"/><path d="M127.933 86.969c38.204-5.184 49.737 8.891 50.023 17.261.386 11.46-17.86 17.52-29.997 16.676-8.161-.568-10.34-4.961-16.122-10.739-11.965-11.965-33.692 2.219-33.692-5.206 0-6.033 18.94-16.522 29.788-17.992Z" fill="#E44F26"/><path fill-rule="evenodd" clip-rule="evenodd" d="M22.166 111.463c1.123-7.976 7.37-16.561 12.986-21.73 6.07-5.59 10.352-6.547 13.193-5.643 2.841.905 13.249 4.866 13.249 4.866l-15.846 86.353s-8.527-3.188-12.077-4.394c-6.22-2.165-9.394-11.217-8-24.292.767-7.184 1.93-13.056 1.693-16.594-.634-9.531-6.907-6.539-5.198-18.566Z" fill="url(#a)"/><path fill-rule="evenodd" clip-rule="evenodd" d="M35.044 116.211c1.123-7.975 7.37-16.565 12.989-21.735 12.245-11.27 17.21-3.662 17.775-.124.918 5.728-2.139 13.217.058 18.314 2.796 6.493 7.999 5.307 10.883 13.579 2.29 6.563 4.614 29.979-16.862 45.713-14.429 10.568-23.527-.043-21.335-20.592.765-7.196 1.926-13.073 1.704-16.605-.647-9.536-6.918-6.527-5.212-18.55Z" fill="#FFAC00"/><path fill-rule="evenodd" clip-rule="evenodd" d="M35.69 116.323c1.114-7.857 7.278-16.35 12.826-21.456 12.092-11.132 16.993-3.62 17.55-.124.906 5.657-2.111 13.049.06 18.08 2.762 6.413 7.898 5.243 10.746 13.409 2.26 6.482 4.554 29.605-16.65 45.141-14.248 10.437-23.233-.043-21.069-20.332.757-7.091 1.906-12.892 1.673-16.388-.623-9.393-6.817-6.441-5.135-18.33Z" fill="url(#b)"/><path fill-rule="evenodd" clip-rule="evenodd" d="m50.293 156.46-.292-6.386 16.417-15.239.026 3.523-16.15 18.102ZM29.402 30.564 35.94 24.3l8.17 74.174-1.964-.905-12.743-67.006Z" fill="#000"/><path fill-rule="evenodd" clip-rule="evenodd" d="m27.859 5.063 7.869 19.266-6.326 6.234-12.01-16.941c2.71-4.005 6.09-6.172 10.467-8.56Zm-4.843 5.411 6.087 12.693c1.218-.18 1.68-.29 1.641-1.533L25.302 8.695c-.912-.274-1.796.467-2.286 1.78Z" fill="url(#c)"/><path fill-rule="evenodd" clip-rule="evenodd" d="m21.706 11.646 4.088 1.662 7.521 13.01-2.35 1.359-9.259-16.03Z" fill="url(#d)"/><path fill-rule="evenodd" clip-rule="evenodd" d="m27.85 5.064 2.55 1.041-9.605 9.444-3.406-1.944c2.704-3.987 6.085-6.154 10.462-8.541Z" fill="url(#e)"/><path fill-rule="evenodd" clip-rule="evenodd" d="m30.4 6.104 7.276 19.737-6.644 5.472-11.098-16.667C22.638 10.66 26.02 8.492 30.4 6.104Zm-3.28 6.028 6.387 12.727c.755.237 1.68-.29 1.545-1.067l-5.659-13.437c-.912-.275-1.796.462-2.285 1.779l.012-.002Zm-3.435 3.378 7.223 11.316c.931.159 1.946-.544 1.825-1.245l-6.94-12.273c-.876-.043-1.86 1.264-2.108 2.202Z" fill="url(#f)"/><path fill-rule="evenodd" clip-rule="evenodd" d="m17.4 13.615 2.536 1.044L31.03 31.292l-1.627-.73L17.4 13.615Z" fill="#000"/><path fill-rule="evenodd" clip-rule="evenodd" d="m31.028 31.294 6.646-5.46 14.13 68.102-7.305 6.797-13.47-69.44Z" fill="url(#g)"/><path fill-rule="evenodd" clip-rule="evenodd" d="m32.23 31.14 4.439-4.075 15.986 74.654-5.901 5.993L32.23 31.14Z" fill="#000"/><path d="m31.834 9.994 2.433-2.453a.447.447 0 0 0-.637-.63l-2.139 2.152.343.93ZM28.86 11.85c-.473.41-1.292 1.196-1.292 1.196l.413.84 1.355-1.362a.316.316 0 0 0-.002-.385c-.056-.124-.247-.48-.473-.29ZM22.215 18.433l-3.052 3.07.555.708 3.059-3.08a6.786 6.786 0 0 1-.562-.698ZM24.831 17.063l1.545-1.564a.336.336 0 0 0 .04-.44l-.118-.182a.343.343 0 0 0-.527-.051l-1.412 1.407.472.83ZM33.679 15.008l2.472-2.477a.447.447 0 1 0-.633-.634l-2.178 2.18.339.931ZM31.038 16.407l-1.186 1.191.422.844 1.157-1.16a.61.61 0 0 0 .124-.657l-.047-.122a.286.286 0 0 0-.47-.096ZM27.404 21.34l1.303-1.342a.426.426 0 0 0 .026-.545l-.083-.106a.328.328 0 0 0-.485-.033l-1.259 1.247c.18.25.347.51.498.778ZM25.285 23.006a.498.498 0 0 1-.15-.316 1.768 1.768 0 0 1-.088-.257l-3.18 3.2.554.708 3.086-3.101-.222-.234ZM27.965 26.825a3.778 3.778 0 0 1-.149-.208l-3.135 3.167.555.708 3.152-3.165a2.238 2.238 0 0 1-.424-.502ZM31.372 23.834c-.009-.05-.105-.155-.105-.155a.336.336 0 0 0-.497-.026l-1.153 1.159c.03.05.058.106.084.158a.625.625 0 0 1 .116.149c.079.158.168.312.266.46l1.223-1.228a.426.426 0 0 0 .066-.517ZM35.564 20.108l2.617-2.614a.447.447 0 1 0-.636-.63l-2.32 2.33c.123.338.219.593.34.914ZM33.392 21.018l-1.212 1.217.419.844 1.13-1.134a.425.425 0 0 0 .088-.494s-.242-.62-.425-.433Z" fill="#000"/><path d="M21.264 22.28c.17.977-.45 1.495-1.383 1.15a3.445 3.445 0 0 1-1.998-2.377c-.17-.982.45-1.5 1.387-1.156a3.465 3.465 0 0 1 1.994 2.382ZM24.063 26.612c.17.983-.45 1.5-1.386 1.157a3.455 3.455 0 0 1-1.998-2.4c-.17-.982.45-1.5 1.382-1.155a3.454 3.454 0 0 1 2.002 2.398ZM27.239 30.752c.17.983-.454 1.501-1.386 1.157a3.455 3.455 0 0 1-2.003-2.403c-.169-.978.45-1.496 1.387-1.152a3.458 3.458 0 0 1 2.002 2.398ZM39.177 19.176c.54-.45.344-1.576-.438-2.513-.782-.938-1.853-1.333-2.394-.883-.54.45-.344 1.576.438 2.514.782.937 1.853 1.332 2.394.882ZM37.537 12.672c.17.982-.45 1.5-1.386 1.157a3.466 3.466 0 0 1-2.003-2.403c-.17-.978.454-1.497 1.387-1.152a3.446 3.446 0 0 1 2.002 2.398ZM35.216 8.233c.17.982-.454 1.5-1.386 1.156a3.447 3.447 0 0 1-2.002-2.398c-.17-.983.45-1.5 1.386-1.157a3.459 3.459 0 0 1 2.002 2.399ZM59.892 125.007c2.186-5.948 1.173-11.794-2.262-13.056-3.436-1.263-7.993 2.535-10.18 8.484-2.186 5.948-1.173 11.794 2.262 13.057 3.436 1.262 7.994-2.536 10.18-8.485Z" fill="#000"/><path d="m60.304 142.595-.261.339-23.95-115.897-7.62-14.879.289-.283 7.605 14.868 23.937 115.852Zm-1.542 1.906-.258.334L35.1 27.766l-7.288-15.031.29-.27 7.278 15.071 23.382 116.965Zm-1.52 2.536-.257.334L33.508 29.157l-8.135-13.934.258-.334 8.14 13.963 23.472 118.185Zm-1.312 1.555-.259.33-23.18-118.975-7.95-13.91.263-.33 7.97 14.01L55.93 148.591Z" fill="#fff"/><defs><linearGradient id="a" x1="51.114" y1="85.474" x2="42.541" y2="114.191" gradientUnits="userSpaceOnUse"><stop stop-color="#FFEB65"/><stop offset=".18" stop-color="#FFE14D"/><stop offset=".48" stop-color="#FFD124"/><stop offset="1" stop-color="#FFAC00"/></linearGradient><linearGradient id="b" x1="54.645" y1="32.998" x2="58.079" y2="181.513" gradientUnits="userSpaceOnUse"><stop stop-color="#FFEB65"/><stop offset=".18" stop-color="#FFE14D"/><stop offset=".48" stop-color="#FFD124"/><stop offset="1" stop-color="#FFAC00"/></linearGradient><linearGradient id="c" x1="26.288" y1="22.206" x2="38.288" y2="17.09" gradientUnits="userSpaceOnUse"><stop stop-color="#FFEB65"/><stop offset=".18" stop-color="#FFE14D"/><stop offset=".48" stop-color="#FFD124"/><stop offset="1" stop-color="#FFAC00"/></linearGradient><linearGradient id="d" x1="21.278" y1="21.758" x2="29.598" y2="18.304" gradientUnits="userSpaceOnUse"><stop stop-color="#FFEB65"/><stop offset=".18" stop-color="#FFE14D"/><stop offset=".48" stop-color="#FFD124"/><stop offset="1" stop-color="#FFAC00"/></linearGradient><linearGradient id="e" x1="22.814" y1="14.078" x2="36.593" y2="8.203" gradientUnits="userSpaceOnUse"><stop stop-color="#FFEB65"/><stop offset=".18" stop-color="#FFE14D"/><stop offset=".48" stop-color="#FFD124"/><stop offset="1" stop-color="#FFAC00"/></linearGradient><linearGradient id="f" x1="24.698" y1="25.86" x2="36.795" y2="9.29" gradientUnits="userSpaceOnUse"><stop stop-color="#FFEB65"/><stop offset=".18" stop-color="#FFE14D"/><stop offset=".48" stop-color="#FFD124"/><stop offset="1" stop-color="#FFAC00"/></linearGradient><linearGradient id="g" x1="40.738" y1="33.322" x2="44.176" y2="181.836" gradientUnits="userSpaceOnUse"><stop stop-color="#FFEB65"/><stop offset=".18" stop-color="#FFE14D"/><stop offset=".48" stop-color="#FFD124"/><stop offset="1" stop-color="#FFAC00"/></linearGradient></defs></svg>
